X:93
T:Untitled. HA.092
M:C
L:1/8
Q:1/2=90
C:in Hand C
S:Henry Atkinson’s original MS,Hartburn,N’umberland,1694.
O:England
A:Hartburn,Northumberland
H:1/8
Z:vmp.Chris Partington.Jan.2004
K:Bb
d2|g2g2g2(ab)|(fd)(cB) c2(BA)|B2B2c>de2|^F4F4|
g2g2g2(ab)|(fd)(cB) c2(BA)|B>cd2 ^F>GA2|B2G4:|
|:B>c|d2c>de2d>e|f2g>dA2(AF)|F>Gd2B>cB2|c4(Bf)(ga)|
b2a>b g2c’>f|=e2f>g^f2d2|g2c>ed2c>A|A4G2:|

